X:87
T:Humors of Lissadell (reel), The 
B:CRE1.191 (Plearaca Lios an Daill)
F:file ID: cre.1/087hu_liss
S:Ned Stapleton
N:1:Ned was a flute player, so it's hard to see how he might 
have been able to play the lower notes in this tune!
N:2:Original version of measure 4 is |FBB2 FB,Df|which looks 
like a transcribing error to me.
M:C
L:1/8
Q:180
R:reel
K:Em
g|eBB2 eBdB|AFF/E/F EDB,A,|B,EE/D/E B,EGE|FBB/A/B FBdf|
eBB2 eBdB|AFF/E/F EDB,A,|B,EE/D/E EFGA|(3B^cd ef e3:|
|:f|eBB2 A2FA|defd edef|dff/e/f dfbf|afdf edef|
|defd B^cdB|AFF/E/F ABde|fdd^c dfbf|afdf e3:|

%%%

